Sources/FrostedUI/Resources/Icons.xcassets/burger20.imageset/burger-20.svg

<svg width="20" height="20" viewBox="0 0 20 20" fill="none" xmlns="http://www.w3.org/2000/svg" data-fui-icon="true">
  <path
    d="M16.2284 13.0654C17.3447 13.0654 18.2499 13.9707 18.2499 15.0869C18.2497 16.9352 16.7449 18.3006 14.9579 18.3008H5.04187C3.25489 18.3005 1.7501 16.9352 1.74988 15.0869C1.74988 13.9707 2.65518 13.0655 3.77136 13.0654H16.2284ZM3.77136 14.5654C3.4836 14.5655 3.24988 14.7991 3.24988 15.0869C3.2501 16.0461 4.02139 16.8005 5.04187 16.8008H14.9579C15.9784 16.8006 16.7497 16.0462 16.7499 15.0869C16.7499 14.7991 16.5162 14.5654 16.2284 14.5654H3.77136ZM13.2216 9.91309C14.1232 8.56127 16.11 8.56124 17.0116 9.91309C17.1544 10.1273 17.4113 10.2544 17.6718 10.2598C18.0856 10.2684 18.4143 10.6106 18.4061 11.0244C18.3977 11.4385 18.0546 11.7682 17.6405 11.7598C16.9537 11.7456 16.2122 11.418 15.7635 10.7451C15.4557 10.2839 14.7775 10.2839 14.4696 10.7451C13.568 12.0975 11.5802 12.0975 10.6786 10.7451C10.3706 10.2839 9.69251 10.2838 9.38464 10.7451C8.48304 12.0975 6.49523 12.0975 5.59363 10.7451C5.28563 10.284 4.60749 10.2838 4.29968 10.7451C3.83153 11.4473 3.04668 11.7744 2.328 11.7598C1.9141 11.7511 1.58518 11.4081 1.59363 10.9941C1.60215 10.5801 1.94524 10.2514 2.35925 10.2598C2.63028 10.2652 2.90192 10.1377 3.05164 9.91309C3.95318 8.56113 5.93994 8.56137 6.84167 9.91309C7.14954 10.3749 7.82873 10.3749 8.1366 9.91309C9.03819 8.5612 11.025 8.5613 11.9266 9.91309C12.2345 10.3749 12.9137 10.3749 13.2216 9.91309ZM13.6864 1.03906C16.2067 1.03911 18.2499 3.08221 18.2499 5.60254C18.2499 6.74206 17.321 7.59375 16.2284 7.59375H3.77136C2.67882 7.59367 1.74988 6.742 1.74988 5.60254C1.7499 3.08226 3.7931 1.03919 6.31335 1.03906H13.6864ZM6.31335 2.53906C4.62153 2.53919 3.2499 3.91069 3.24988 5.60254C3.24988 5.86707 3.45997 6.09367 3.77136 6.09375H16.2284C16.5399 6.09375 16.7499 5.86711 16.7499 5.60254C16.7499 3.91064 15.3783 2.53911 13.6864 2.53906H6.31335Z"
    fill="currentColor"
  />
</svg>

<svg xmlns="http://www.w3.org/2000/svg" width="20" height="20" fill="none" data-fui-icon="true" viewBox="0 0 20 20"><path fill="currentColor" d="M16.228 13.065c1.117 0 2.022.906 2.022 2.022 0 1.848-1.505 3.214-3.292 3.214H5.042c-1.787 0-3.292-1.366-3.292-3.214 0-1.116.905-2.021 2.021-2.022zm-12.457 1.5a.52.52 0 0 0-.521.522c0 .96.771 1.713 1.792 1.714h9.916c1.02 0 1.792-.755 1.792-1.714a.52.52 0 0 0-.522-.522zm9.45-4.652a2.278 2.278 0 0 1 3.79 0c.143.214.4.341.66.347a.75.75 0 1 1-.03 1.5 2.32 2.32 0 0 1-1.877-1.015.778.778 0 0 0-1.294 0 2.278 2.278 0 0 1-3.791 0 .778.778 0 0 0-1.294 0 2.278 2.278 0 0 1-3.791 0 .778.778 0 0 0-1.294 0 2.32 2.32 0 0 1-1.972 1.015.75.75 0 0 1 .031-1.5.82.82 0 0 0 .693-.347 2.278 2.278 0 0 1 3.79 0 .778.778 0 0 0 1.295 0 2.278 2.278 0 0 1 3.79 0 .778.778 0 0 0 1.295 0m.465-8.874a4.564 4.564 0 0 1 4.564 4.564c0 1.14-.929 1.99-2.022 1.99H3.771c-1.092 0-2.021-.851-2.021-1.99a4.564 4.564 0 0 1 4.563-4.564zm-7.373 1.5A3.064 3.064 0 0 0 3.25 5.603c0 .264.21.49.521.49h12.457c.312 0 .522-.226.522-.49a3.064 3.064 0 0 0-3.064-3.064z"/></svg>
